X: 39
T:Da Ferry Reel
M:4/4
L:1/8
Q:180
K:D
A|"D"d2dA-d2d2|"Em"efed "A"c2A2|
"G"B-cdB "D"A-BAF-|"Em"G2E2"A"E3A-|
"D"d2dA-d2d2|"Em"efed "A"c2A2|
"G"B-cdB "A"A-GFE|"D"D2d2d2z::
e-|"D"f2fd fafd|fgag fedf-|"A"e2ec-e2ec-|efed "A7"cAGg-|
"D"f2fd fafd|fgag fedf-|"Em"efgf "A"edcB|"D"A2d2d2z:||
